X:8
T:The Humours of Castle Finn
R:reel
C:traditional Irish
D:An Historic Recording of Irish Music
Z:Paul Stewart Cranford (P.S.C.), <http://www.cranfordpub.com>
L:1/8
Q:333
M:C|
K:Emin
B(E ~E2) B(E ~E2)|AD (3(FED) FGAc|B(E ~E2) BFAF|GEAF E2 FA:|
||B2 ed efge|defg (3(agf) ed|B2 ed efge|agfa (3(gfe) ed|
B2 ed efge|defg afdf|efga bagf|(3(efe) fd eddc|]
